docs/img/stages-2.svg

<svg width="48" height="48" viewBox="0 0 48 48" fill="none" xmlns="http://www.w3.org/2000/svg">
<g clip-path="url(#clip0)">
<path d="M25.5062 48H22.4937C20.0572 48 18.0749 46.0177 18.0749 43.5813V42.5621C17.0391 42.2312 16.0327 41.8134 15.0658 41.3131L14.3436 42.0353C12.5943 43.7868 9.79219 43.7354 8.09372 42.0347L5.96456 39.9056C4.26309 38.206 4.21416 35.4049 5.96513 33.6558L6.68681 32.9341C6.18647 31.9672 5.76881 30.961 5.43778 29.925H4.41872C1.98234 29.925 0 27.9427 0 25.5063V22.4937C0 20.0572 1.98234 18.075 4.41881 18.075H5.43788C5.76891 17.0391 6.18656 16.0328 6.68691 15.0659L5.96466 14.3438C4.21472 12.5957 4.263 9.79425 5.96522 8.09391L8.09456 5.96466C9.79697 4.25991 12.5984 4.21734 14.3443 5.96522L15.0659 6.68681C16.0328 6.18656 17.0392 5.76881 18.075 5.43778V4.41872C18.075 1.98225 20.0573 0 22.4938 0H25.5063C27.9427 0 29.925 1.98225 29.925 4.41872V5.43788C30.9608 5.76881 31.9672 6.18656 32.9341 6.68691L33.6563 5.96466C35.4056 4.21322 38.2077 4.26459 39.9062 5.96531L42.0353 8.09437C43.7368 9.79397 43.7858 12.5951 42.0348 14.3442L41.3131 15.0659C41.8134 16.0328 42.2311 17.039 42.5621 18.075H43.5812C46.0177 18.075 48 20.0572 48 22.4937V25.5063C48 27.9427 46.0177 29.925 43.5812 29.925H42.5621C42.2311 30.9609 41.8134 31.9672 41.3131 32.9341L42.0353 33.6563C43.7853 35.4044 43.737 38.2058 42.0348 39.9062L39.9054 42.0354C38.203 43.7402 35.4016 43.7827 33.6557 42.0349L32.9341 41.3133C31.9672 41.8135 30.9608 42.2313 29.925 42.5623V43.5815C29.925 46.0177 27.9428 48 25.5062 48ZM15.536 38.3597C16.8791 39.154 18.3248 39.7541 19.8326 40.1433C20.4536 40.3035 20.8875 40.8636 20.8875 41.5049V43.5813C20.8875 44.4669 21.6082 45.1875 22.4938 45.1875H25.5063C26.3919 45.1875 27.1126 44.4669 27.1126 43.5813V41.5049C27.1126 40.8636 27.5465 40.3035 28.1675 40.1433C29.6753 39.7541 31.121 39.154 32.4641 38.3597C33.0168 38.0329 33.7204 38.1217 34.1744 38.5758L35.6452 40.0466C36.2793 40.6815 37.2976 40.6668 37.9162 40.0473L40.0468 37.9167C40.6639 37.3004 40.6845 36.2819 40.0474 35.6456L38.576 34.1742C38.122 33.7203 38.0332 33.0166 38.3599 32.464C39.1542 31.121 39.7542 29.6753 40.1434 28.1674C40.3037 27.5464 40.8638 27.1126 41.505 27.1126H43.5813C44.4669 27.1126 45.1876 26.392 45.1876 25.5064V22.4938C45.1876 21.6082 44.4669 20.8876 43.5813 20.8876H41.505C40.8637 20.8876 40.3037 20.4537 40.1434 19.8328C39.7542 18.3248 39.1541 16.8792 38.3599 15.5362C38.0332 14.9836 38.122 14.2799 38.576 13.826L40.0468 12.3551C40.6826 11.7201 40.666 10.7019 40.0474 10.084L37.9169 7.95356C37.2994 7.33519 36.2809 7.31709 35.6458 7.953L34.1745 9.42441C33.7206 9.87844 33.0167 9.96731 32.4642 9.6405C31.1211 8.84616 29.6754 8.24606 28.1676 7.85691C27.5466 7.69669 27.1127 7.13662 27.1127 6.49528V4.41872C27.1127 3.53306 26.392 2.8125 25.5064 2.8125H22.4939C21.6082 2.8125 20.8876 3.53306 20.8876 4.41872V6.49509C20.8876 7.13644 20.4537 7.6965 19.8327 7.85672C18.3248 8.24588 16.8792 8.84597 15.5361 9.64031C14.9833 9.96703 14.2797 9.87816 13.8258 9.42422L12.355 7.95337C11.7209 7.3185 10.7025 7.33322 10.084 7.95272L7.95337 10.0833C7.33631 10.6996 7.31569 11.718 7.95281 12.3544L9.42422 13.8258C9.87816 14.2797 9.96703 14.9834 9.64031 15.536C8.84597 16.879 8.24597 18.3247 7.85681 19.8326C7.6965 20.4536 7.13644 20.8874 6.49519 20.8874H4.41881C3.53316 20.8875 2.8125 21.6081 2.8125 22.4937V25.5063C2.8125 26.3919 3.53316 27.1125 4.41881 27.1125H6.49509C7.13644 27.1125 7.69641 27.5464 7.85672 28.1673C8.24588 29.6752 8.84597 31.1209 9.64022 32.4639C9.96694 33.0165 9.87806 33.7202 9.42413 34.1741L7.95328 35.645C7.31747 36.28 7.33406 37.2982 7.95272 37.9161L10.0832 40.0465C10.7007 40.6649 11.7192 40.683 12.3543 40.0471L13.8256 38.5757C14.1601 38.2413 14.856 37.9575 15.536 38.3597Z" fill="#212B31"/>
<path d="M24 34.4436C18.2412 34.4436 13.5563 29.7586 13.5563 23.9999C13.5563 18.2412 18.2412 13.5562 24 13.5562C29.7588 13.5562 34.4438 18.2412 34.4438 23.9999C34.4438 29.7586 29.7588 34.4436 24 34.4436ZM24 16.3687C19.7921 16.3687 16.3688 19.792 16.3688 23.9999C16.3688 28.2078 19.7921 31.6311 24 31.6311C28.2079 31.6311 31.6313 28.2078 31.6313 23.9999C31.6313 19.792 28.208 16.3687 24 16.3687Z" fill="#212B31"/>
</g>
<defs>
<clipPath id="clip0">
<rect width="48" height="48" fill="white"/>
</clipPath>
</defs>
</svg>

<svg width="48" height="48" fill="none" xmlns="http://www.w3.org/2000/svg"><g clip-path="url(#a)" fill="#212B31"><path d="M25.506 48h-3.012a4.424 4.424 0 0 1-4.42-4.419v-1.019a19.382 19.382 0 0 1-3.008-1.249l-.722.722c-1.75 1.752-4.552 1.7-6.25 0l-2.13-2.13a4.418 4.418 0 0 1 .001-6.25l.722-.72c-.5-.968-.918-1.974-1.25-3.01H4.42A4.424 4.424 0 0 1 0 25.506v-3.012a4.424 4.424 0 0 1 4.419-4.419h1.019a19.386 19.386 0 0 1 1.249-3.01l-.722-.721c-1.75-1.748-1.702-4.55 0-6.25l2.13-2.13a4.418 4.418 0 0 1 6.25.001l.72.722a19.4 19.4 0 0 1 3.01-1.25V4.42A4.424 4.424 0 0 1 22.494 0h3.012a4.424 4.424 0 0 1 4.419 4.419v1.019a19.38 19.38 0 0 1 3.01 1.249l.721-.722c1.75-1.752 4.552-1.7 6.25 0l2.13 2.13a4.418 4.418 0 0 1-.001 6.25l-.722.72c.5.968.918 1.974 1.25 3.01h1.018A4.424 4.424 0 0 1 48 22.494v3.012a4.424 4.424 0 0 1-4.419 4.419h-1.019a19.388 19.388 0 0 1-1.249 3.01l.722.721c1.75 1.748 1.702 4.55 0 6.25l-2.13 2.13a4.418 4.418 0 0 1-6.25-.001l-.72-.722c-.968.5-1.974.918-3.01 1.25v1.018A4.424 4.424 0 0 1 25.506 48Zm-9.97-9.64a16.58 16.58 0 0 0 4.297 1.783c.62.16 1.055.72 1.055 1.362v2.076c0 .886.72 1.606 1.606 1.606h3.012c.886 0 1.607-.72 1.607-1.606v-2.076c0-.641.434-1.202 1.055-1.362a16.58 16.58 0 0 0 4.296-1.783 1.406 1.406 0 0 1 1.71.216l1.471 1.47c.634.636 1.653.62 2.271.001l2.13-2.13a1.606 1.606 0 0 0 .001-2.271l-1.471-1.472a1.406 1.406 0 0 1-.216-1.71 16.576 16.576 0 0 0 1.783-4.297c.16-.62.72-1.054 1.362-1.054h2.076c.886 0 1.607-.721 1.607-1.607v-3.012c0-.886-.721-1.606-1.607-1.606h-2.076a1.406 1.406 0 0 1-1.362-1.055 16.578 16.578 0 0 0-1.783-4.297 1.406 1.406 0 0 1 .216-1.71l1.47-1.47a1.606 1.606 0 0 0 .001-2.272l-2.13-2.13a1.606 1.606 0 0 0-2.271-.001l-1.471 1.471a1.406 1.406 0 0 1-1.71.216 16.576 16.576 0 0 0-4.297-1.783 1.406 1.406 0 0 1-1.055-1.362V4.42c0-.886-.721-1.606-1.607-1.606h-3.012c-.886 0-1.606.72-1.606 1.606v2.076c0 .641-.434 1.202-1.055 1.362-1.508.389-2.954.989-4.297 1.783a1.406 1.406 0 0 1-1.71-.216l-1.471-1.47a1.606 1.606 0 0 0-2.271-.001l-2.13 2.13a1.606 1.606 0 0 0-.001 2.271l1.471 1.472c.454.454.543 1.157.216 1.71a16.573 16.573 0 0 0-1.783 4.297 1.406 1.406 0 0 1-1.362 1.054H4.42c-.886 0-1.606.721-1.606 1.607v3.012c0 .886.72 1.607 1.606 1.607h2.076c.641 0 1.201.433 1.362 1.054.389 1.508.989 2.954 1.783 4.297a1.406 1.406 0 0 1-.216 1.71l-1.47 1.471a1.606 1.606 0 0 0-.001 2.271l2.13 2.13a1.606 1.606 0 0 0 2.271.001l1.472-1.471c.334-.335 1.03-.618 1.71-.216Z"/><path d="M24 34.444c-5.759 0-10.444-4.685-10.444-10.444 0-5.759 4.685-10.444 10.444-10.444 5.759 0 10.444 4.685 10.444 10.444 0 5.759-4.685 10.444-10.444 10.444Zm0-18.075c-4.208 0-7.631 3.423-7.631 7.63 0 4.209 3.423 7.632 7.631 7.632s7.631-3.423 7.631-7.631-3.423-7.631-7.631-7.631Z"/></g><defs><clipPath id="a"><path fill="#fff" d="M0 0h48v48H0z"/></clipPath></defs></svg>
